icons/sign-out-16.svg

<svg width="16" height="16" viewBox="0 0 16 16" xmlns="http://www.w3.org/2000/svg">
  <path fill-rule="evenodd" clip-rule="evenodd" d="M2 2.75C2 1.7835 2.7835 1 3.75 1H6.25C6.66421 1 7 1.33579 7 1.75C7 2.16421 6.66421 2.5 6.25 2.5H3.75C3.61193 2.5 3.5 2.61193 3.5 2.75V13.25C3.5 13.3881 3.61193 13.5 3.75 13.5H6.25C6.66421 13.5 7 13.8358 7 14.25C7 14.6642 6.66421 15 6.25 15H3.75C2.7835 15 2 14.2165 2 13.25V2.75ZM12.4393 7.25L6.75002 7.25C6.33581 7.25 6.00002 7.58579 6.00002 8C6.00002 8.41422 6.33581 8.75 6.75002 8.75L12.4393 8.75L10.4697 10.7197C10.1768 11.0126 10.1768 11.4874 10.4697 11.7803C10.7626 12.0732 11.2374 12.0732 11.5303 11.7803L14.7803 8.53033C15.0732 8.23744 15.0732 7.76256 14.7803 7.46967L11.5303 4.21967C11.2374 3.92678 10.7626 3.92678 10.4697 4.21967C10.1768 4.51256 10.1768 4.98744 10.4697 5.28033L12.4393 7.25Z"/>
</svg>

<svg xmlns="http://www.w3.org/2000/svg" width="16" height="16" viewBox="0 0 16 16"><path fill-rule="evenodd" d="M2 2.75C2 1.784 2.784 1 3.75 1h2.5a.75.75 0 010 1.5h-2.5a.25.25 0 00-.25.25v10.5c0 .138.112.25.25.25h2.5a.75.75 0 010 1.5h-2.5A1.75 1.75 0 012 13.25V2.75zm10.44 4.5H6.75a.75.75 0 000 1.5h5.69l-1.97 1.97a.75.75 0 101.06 1.06l3.25-3.25a.75.75 0 000-1.06l-3.25-3.25a.75.75 0 10-1.06 1.06l1.97 1.97z"/></svg>
